X: 36190
T: Scottish Fairy, The
R: reel
M: 4/4
K: Amajor
afec Acec|Acec B4|afec Acec|BABc A2 A2:|
|:AAeA fAeA|AAeA B4|AAeA fAec|BABc A4:|

